build/images/icons/categories/icon_5.svg

<svg width="50" height="50" viewBox="0 0 50 50" fill="none" xmlns="http://www.w3.org/2000/svg">
<path d="M7.75879 29.741C5.85438 29.741 4.31055 28.1971 4.31055 26.2927C4.31055 24.3883 5.85438 22.8445 7.75879 22.8445C9.6632 22.8445 11.207 24.3883 11.207 26.2927C11.207 28.1971 9.6632 29.741 7.75879 29.741Z" fill="#AA161D"/>
<path d="M0.000221252 25.4308C0.0214119 25.2338 0.0530548 25.0382 0.095047 24.8445C0.478642 22.9182 2.30823 16.682 9.95628 12.3201L6.53987 8.90371C6.21643 8.58037 6.03479 8.1418 6.03479 7.68447C6.03479 7.22715 6.21653 6.78857 6.53987 6.46523L7.75891 5.24619C8.43235 4.57354 9.52346 4.57354 10.1969 5.24619L18.4909 13.5402C19.1636 14.2139 19.1636 15.3051 18.4909 15.9787L17.2719 17.1978C16.5983 17.8701 15.5074 17.8701 14.8338 17.1978L12.2288 14.5928C10.2267 15.651 8.39211 16.9995 6.78469 18.5946L6.7761 18.6032C10.2782 18.1304 13.6515 20.1065 14.9514 23.3927C15.4557 22.4031 16.5352 21.8458 17.6339 22.0077C18.7326 22.1696 19.6056 23.0146 19.8031 24.1075C20.0005 25.2005 19.4784 26.2975 18.5058 26.8336C17.5331 27.3697 16.3269 27.2253 15.5082 26.4748C15.413 30.6629 12.0082 34.0181 7.81907 34.0516H41.3795V28.0171H37.9313C36.979 28.0171 36.2072 27.2452 36.2072 26.293C36.2072 25.3407 36.979 24.5688 37.9313 24.5688H48.2761C49.2282 24.5687 50.0002 25.3406 50.0002 26.2928C50.0002 27.245 49.2283 28.0169 48.2761 28.0169H44.8279V34.0514H48.2761C48.7335 34.0489 49.1723 34.2325 49.4916 34.56C49.8191 34.8793 50.0027 35.3181 50.0002 35.7755C49.9974 36.7266 49.2272 37.4969 48.2761 37.4996H46.552L48.2761 41.81H49.1381C49.6142 41.81 50.0002 42.1959 50.0002 42.6721V44.3962C50.0002 44.8723 49.6143 45.2583 49.1381 45.2583H43.9656C43.4896 45.2583 43.1035 44.8724 43.1035 44.3962V42.6721C43.1035 42.196 43.4895 41.81 43.9656 41.81H44.8278L43.1036 37.4996H6.89671L5.17258 41.81H6.03469C6.51077 41.81 6.8968 42.1959 6.8968 42.6721V44.3962C6.8968 44.8723 6.51087 45.2583 6.03469 45.2583H0.862232C0.386158 45.2583 0.000125885 44.8724 0.000125885 44.3962V42.6721C0.000125885 42.196 0.386059 41.81 0.862232 41.81H1.72434L3.44846 37.4996H1.72434C0.775024 37.4927 0.00705719 36.7248 0.000221252 35.7755V26.2928C0.00188065 25.9845 0.0219002 25.6765 0.0599861 25.3705L0.000221252 25.4308ZM17.2415 25.4308C17.7176 25.4308 18.1036 25.0448 18.1036 24.5687C18.1036 24.0926 17.7177 23.7065 17.2415 23.7065C16.7655 23.7065 16.3794 24.0925 16.3794 24.5687C16.38 25.0445 16.7656 25.4303 17.2415 25.4308ZM7.75881 31.4652C10.6155 31.4652 12.9313 29.1494 12.9313 26.2928C12.9313 23.4361 10.6155 21.1203 7.75881 21.1203C4.90217 21.1203 2.58635 23.436 2.58635 26.2928C2.5887 29.1485 4.90315 31.463 7.75881 31.4652Z" fill="#AA161D"/>
</svg>

<svg width="50" height="50" fill="none" xmlns="http://www.w3.org/2000/svg"><path d="M7.759 29.741a3.448 3.448 0 110-6.897 3.448 3.448 0 010 6.897z" fill="#AA161D"/><path d="M0 25.43c.021-.196.053-.392.095-.585.384-1.927 2.213-8.163 9.861-12.525L6.54 8.904a1.724 1.724 0 010-2.439l1.219-1.219a1.725 1.725 0 012.438 0l8.294 8.294a1.726 1.726 0 010 2.439l-1.22 1.219a1.726 1.726 0 01-2.437 0l-2.605-2.605a22.962 22.962 0 00-5.444 4.002l-.009.008a7.686 7.686 0 018.175 4.79 2.587 2.587 0 11.557 3.082 7.753 7.753 0 01-7.689 7.577h33.56v-6.035h-3.448a1.724 1.724 0 110-3.448h10.345a1.724 1.724 0 110 3.448h-3.448v6.034h3.448c.457-.002.896.181 1.216.509.327.32.51.758.508 1.215a1.729 1.729 0 01-1.724 1.725h-1.724l1.724 4.31h.862c.476 0 .862.386.862.862v1.724a.862.862 0 01-.862.862h-5.172a.862.862 0 01-.863-.862v-1.724c0-.476.386-.862.863-.862h.862l-1.724-4.31H6.897l-1.724 4.31h.862c.476 0 .862.386.862.862v1.724a.862.862 0 01-.862.862H.862A.862.862 0 010 44.396v-1.724c0-.476.386-.862.862-.862h.862l1.724-4.31H1.724A1.737 1.737 0 010 35.776v-9.483a7.9 7.9 0 01.06-.922l-.06.06zm17.241 0a.862.862 0 100-1.723.862.862 0 000 1.724zM7.76 31.466a5.172 5.172 0 100-10.345 5.172 5.172 0 000 10.345z" fill="#AA161D"/></svg>
